img/payments/YooMoney.svg

<svg width="108" height="108" viewBox="0 0 108 108" fill="none" xmlns="http://www.w3.org/2000/svg">
<path d="M2 54C2 25.2812 25.2812 2 54 2C82.7188 2 106 25.2812 106 54C106 82.7188 82.7188 106 54 106C25.2812 106 2 82.7188 2 54Z" fill="#8B3FFD"/>
<path d="M61.7996 31.9004C48.7671 31.9004 38.4004 42.4156 38.4004 55.3004C38.4004 68.3333 48.9151 78.7004 61.7996 78.7004C74.6839 78.7004 85.1989 68.1851 85.1989 55.3004C85.3469 42.4156 74.6839 31.9004 61.7996 31.9004ZM61.7996 64.0383C57.0605 64.0383 53.0618 60.0397 53.0618 55.3004C53.0618 50.5611 57.0605 46.5624 61.7996 46.5624C66.5386 46.5624 70.5373 50.5611 70.5373 55.3004C70.5373 60.0397 66.6868 64.0383 61.7996 64.0383Z" fill="white"/>
<path d="M38.4012 37.1006V73.5006H30.3593L20.2012 37.1006H38.4012Z" fill="white"/>
<path d="M54 104.775C25.9577 104.775 3.225 82.0423 3.225 54H0.775C0.775 83.3954 24.6046 107.225 54 107.225V104.775ZM104.775 54C104.775 82.0423 82.0423 104.775 54 104.775V107.225C83.3954 107.225 107.225 83.3954 107.225 54H104.775ZM54 3.225C82.0423 3.225 104.775 25.9577 104.775 54H107.225C107.225 24.6046 83.3954 0.775 54 0.775V3.225ZM54 0.775C24.6046 0.775 0.775 24.6046 0.775 54H3.225C3.225 25.9577 25.9577 3.225 54 3.225V0.775Z" fill="white"/>
</svg>

<svg width="108" height="108" fill="none" xmlns="http://www.w3.org/2000/svg"><path d="M2 54C2 25.281 25.281 2 54 2s52 23.281 52 52-23.281 52-52 52S2 82.719 2 54z" fill="#8B3FFD"/><path d="M61.8 31.9c-13.033 0-23.4 10.516-23.4 23.4 0 13.033 10.515 23.4 23.4 23.4 12.884 0 23.399-10.515 23.399-23.4.148-12.884-10.515-23.4-23.4-23.4zm0 32.138c-4.74 0-8.738-3.998-8.738-8.738 0-4.739 3.998-8.738 8.738-8.738 4.739 0 8.737 4 8.737 8.738 0 4.74-3.85 8.738-8.737 8.738z" fill="#fff"/><path d="M38.401 37.1v36.4H30.36L20.201 37.1h18.2zM54 104.775C25.958 104.775 3.225 82.042 3.225 54H.775c0 29.395 23.83 53.225 53.225 53.225v-2.45zM104.775 54c0 28.042-22.733 50.775-50.775 50.775v2.45c29.395 0 53.225-23.83 53.225-53.225h-2.45zM54 3.225c28.042 0 50.775 22.733 50.775 50.775h2.45C107.225 24.605 83.395.775 54 .775v2.45zm0-2.45C24.605.775.775 24.605.775 54h2.45C3.225 25.958 25.958 3.225 54 3.225V.775z" fill="#fff"/></svg>
